X: 288
M: 2/4
L: 1/16
K: A
V: 1
ed |\
c2A2A2B2 | Tc4c2e2 | d2c2B2A2 | BAGF E2ed |\
c2A2A2B2 | Tc4c2e2 | d2c2TB4 | A6 :|
|: ba |\
g2e2e2f2 | Tg4g2b2 | a2g2f2e2 | fe^dc B2ba |\
g2e2e2f2 | Tg4g2b2 | a2g2Tf4 | e6 ga |\
b2d2Td4 | b2d2Td4 |
b2d2d2d2 | c2B2 A2fg |\
a2c2Tc4 | a2c2Tc4 |  a2c2B2A2 | G2F2 E2ed |\
V: 2 clef=bass middle=d
z2 |\
|: z2 \
e8 | e8 | f4c'4 | b4 z2^d2 | e8 | e8 | a4b4 | e8 |
g8 | g8 | g4e4 | a4A4 | a8 | a8 | a4^d4 | e4g4 |
a4z4 | A4c4 | d4e4 | A6 :|

